X: 19578
T: James Murray's
R: reel
M: 4/4
K: Dmajor
~F3B AD~D2|FEDF EB,~B,2|FEDF AFDB,|A,B,DE FDDE|
F2BF AFDE|FEDF EB,B,D|A,B,DE FAdB|ABde fdd2|
(3fgf df eBdB|AFDE FAde|fd~d2 eBdB|ABde fdd2|
defd eBdB|AFDE FGAB|AFED FEDB,|A,B,DE FDD2|

